icon/cg/push-chevron-right-o.svg

<svg viewBox="0 0 24 24" fill="none" xmlns="http://www.w3.org/2000/svg" height="1em" width="1em">
  <path d="M14 8H16V16H14V8Z" fill="currentColor"/>
  <path d="M8.70261 16.2427L7.2884 14.8285L10.1168 12L7.28842 9.17164L8.70264 7.75743L12.9453 12.0001L8.70261 16.2427Z" fill="currentColor"/>
  <path fill-rule="evenodd" clip-rule="evenodd" d="M23 12C23 5.92487 18.0751 1 12 1C5.92487 1 1 5.92487 1 12C1 18.0751 5.92487 23 12 23C18.0751 23 23 18.0751 23 12ZM21 12C21 7.02944 16.9706 3 12 3C7.02944 3 3 7.02944 3 12C3 16.9706 7.02944 21 12 21C16.9706 21 21 16.9706 21 12Z" fill="currentColor"/>
</svg>

<svg width="24" height="24" fill="none" xmlns="http://www.w3.org/2000/svg"><path d="M14 8h2v8h-2V8ZM8.703 16.243l-1.415-1.414L10.117 12 7.288 9.172l1.415-1.415L12.945 12l-4.242 4.243Z" fill="currentColor"/><path fill-rule="evenodd" clip-rule="evenodd" d="M23 12c0-6.075-4.925-11-11-11S1 5.925 1 12s4.925 11 11 11 11-4.925 11-11Zm-2 0a9 9 0 1 0-18 0 9 9 0 0 0 18 0Z" fill="currentColor"/></svg>
